images/logo.svg

<svg width="137" height="36" viewBox="0 0 137 36" fill="none" xmlns="http://www.w3.org/2000/svg">
<path d="M40.2358 0L38.093 1.86631L12.2755 4.10526C11.0882 4.19053 10.4184 4.14316 9.33914 5.07474C8.25983 6.00632 8.2154 6.67579 7.96463 7.83474L2.15542 32.9495L0 34.8158L4.02834 6.2179C4.32673 4.39263 4.75528 3.07895 6.37106 1.68C7.98684 0.281055 9.35502 0.0410526 11.2152 0H40.2358Z" fill="#2FBA56"/>
<path d="M1.66797 35.9994L3.82339 34.1331L29.6283 31.8941C30.8155 31.8089 31.4853 31.8562 32.5646 30.9246C33.6439 29.9931 33.6883 29.3236 33.9391 28.1646L39.7483 3.0499L41.9037 1.18359L37.8754 29.7815C37.577 31.6068 37.1484 32.9204 35.5327 34.3194C33.9169 35.7183 32.5487 35.9583 30.6885 35.9994H1.66797Z" fill="#2FBA56"/>
<path d="M59.6777 10.8281C54.916 10.8281 49.5195 12.0913 49.5195 18.4071V25.986H52.3765V18.4071C52.3765 15.2492 54.916 13.6702 57.4556 13.6702L59.6777 10.8281Z" fill="white"/>
<path d="M136.182 10.8281C131.42 10.8281 126.023 12.0913 126.023 18.4071V25.986H128.88V18.4071C128.88 15.2492 131.42 13.6702 133.959 13.6702L136.182 10.8281Z" fill="white"/>
<path d="M80.3107 25.986H84.7549L90.7863 10.8281H87.6119L82.5328 23.4597L77.4537 10.8281H74.2793L80.3107 25.986Z" fill="white"/>
<path d="M98.0861 25.986H102.53L108.562 10.8281H105.387L100.308 23.4597L95.2291 10.8281H92.0547L98.0861 25.986Z" fill="white"/>
<path d="M66.6626 10.5156C65.3389 10.5156 62.4882 10.6104 60.6312 12.4483C59.0154 14.0556 58.7266 16.7651 58.7266 18.4104C58.7266 18.7546 58.7266 22.4619 60.6312 24.3567C62.4216 26.1377 65.3452 26.3051 66.6626 26.3051C70.9068 26.3051 73.1956 24.0598 73.8844 21.7009L71.0941 21.7293C70.2402 22.923 68.2371 23.7819 66.6499 23.7819C65.3516 23.7819 61.8343 23.7346 61.5708 19.3041L74.2685 19.3956V18.2872C74.1796 16.4114 74.0019 14.2135 72.4655 12.5683C70.6973 10.6735 68.3101 10.5156 66.6563 10.5156H66.6626ZM61.5835 17.0935C61.901 14.7914 63.0755 12.9093 66.7134 12.9093C70.4433 12.9093 71.2242 15.1198 71.4369 17.0935H61.5835Z" fill="white"/>
<path d="M116.499 10.5156C115.175 10.5156 112.324 10.6104 110.467 12.4483C108.851 14.0556 108.562 16.7651 108.562 18.4104C108.562 18.7546 108.562 22.4619 110.467 24.3567C112.258 26.1377 115.181 26.3051 116.499 26.3051C120.743 26.3051 123.032 24.0598 123.72 21.7009L120.93 21.7293C120.076 22.923 118.073 23.7819 116.486 23.7819C115.188 23.7819 111.67 23.7346 111.407 19.3041L124.104 19.3956V18.2872C124.016 16.4114 123.838 14.2135 122.301 12.5683C120.533 10.6735 118.146 10.5156 116.492 10.5156H116.499ZM111.419 17.0935C111.737 14.7914 112.911 12.9093 116.549 12.9093C120.279 12.9093 121.06 15.1198 121.273 17.0935H111.419Z" fill="white"/>
</svg>

<svg width="137" height="36" fill="none" xmlns="http://www.w3.org/2000/svg"><path d="m40.236 0-2.143 1.866-25.818 2.24c-1.187.085-1.857.037-2.936.969-1.08.931-1.124 1.6-1.374 2.76l-5.81 25.114L0 34.816 4.028 6.218c.299-1.825.727-3.139 2.343-4.538C7.987.281 9.355.041 11.215 0h29.02zM1.668 36l2.155-1.867 25.805-2.239c1.188-.085 1.857-.038 2.937-.97 1.079-.93 1.123-1.6 1.374-2.76L39.75 3.05l2.155-1.866-4.029 28.598c-.298 1.825-.727 3.138-2.342 4.537-1.616 1.4-2.984 1.64-4.845 1.68H1.669z" fill="#2FBA56"/><path d="M59.678 10.828c-4.762 0-10.158 1.263-10.158 7.58v7.578h2.856v-7.579c0-3.158 2.54-4.737 5.08-4.737l2.222-2.842zM136.182 10.828c-4.762 0-10.159 1.263-10.159 7.58v7.578h2.857v-7.579c0-3.158 2.54-4.737 5.079-4.737l2.223-2.842zM80.31 25.986h4.445l6.031-15.158h-3.174l-5.08 12.632-5.078-12.632h-3.175l6.032 15.158zM98.086 25.986h4.444l6.032-15.158h-3.175l-5.079 12.632-5.079-12.632h-3.174l6.031 15.158zM66.663 10.516c-1.324 0-4.175.094-6.032 1.932-1.616 1.608-1.904 4.317-1.904 5.962 0 .345 0 4.052 1.904 5.947 1.79 1.78 4.714 1.948 6.032 1.948 4.244 0 6.533-2.245 7.221-4.604l-2.79.028c-.854 1.194-2.857 2.053-4.444 2.053-1.298 0-4.816-.047-5.08-4.478l12.699.092v-1.109c-.09-1.876-.267-4.073-1.803-5.719-1.769-1.894-4.156-2.052-5.81-2.052h.007zm-5.08 6.577c.318-2.302 1.492-4.184 5.13-4.184 3.73 0 4.511 2.21 4.724 4.184h-9.853zM116.499 10.516c-1.324 0-4.175.094-6.032 1.932-1.616 1.608-1.905 4.317-1.905 5.962 0 .345 0 4.052 1.905 5.947 1.791 1.78 4.714 1.948 6.032 1.948 4.244 0 6.533-2.245 7.221-4.604l-2.79.028c-.854 1.194-2.857 2.053-4.444 2.053-1.298 0-4.816-.047-5.079-4.478l12.697.092v-1.109c-.088-1.876-.266-4.073-1.803-5.719-1.768-1.894-4.155-2.052-5.809-2.052h.007zm-5.08 6.577c.318-2.302 1.492-4.184 5.13-4.184 3.73 0 4.511 2.21 4.724 4.184h-9.854z" fill="#fff"/></svg>
